icon/lg/redux-saga.svg

<?xml version="1.0" encoding="UTF-8"?>
<svg viewBox="0 0 256 157" version="1.1" xmlns="http://www.w3.org/2000/svg" xmlns:xlink="http://www.w3.org/1999/xlink" preserveAspectRatio="xMidYMid" height="1em" width="1em">
  <g>
    <path d="M130.005279,96.2274864 C130.005279,101.498402 126.084419,105.850729 121.000757,106.534269 C114.974281,120.582842 102.699049,134.289318 85.881289,143.998985 C71.7662609,152.1481 56.808266,156.124612 43.3911816,156.124612 C26.3275703,156.124612 11.7548849,149.695476 4.56495141,137.242157 C-7.11185678,117.017502 4.26573913,88.7979212 31.232491,69.7288675 C31.2334731,74.0847959 31.5742609,78.0789852 32.3373504,81.6230465 C30.1613504,83.4576041 28.183734,85.0286322 26.253913,87.0520798 C21.2881023,92.2578496 17.3181381,97.6515274 14.6019847,103.410873 C9.53567263,114.152724 9.19324808,124.306954 13.6372379,132.004305 C18.6436419,140.675568 29.4886138,145.648908 43.3911816,145.648908 C55.4375857,145.648908 68.6674169,141.84099 80.6434373,134.926699 C87.6169821,130.900755 93.8176164,126.065563 99.0738005,120.555016 C104.039611,115.348919 107.934609,109.788939 110.65109,104.029594 C110.887775,103.527742 111.111038,103.027855 111.326118,102.529277 C109.99243,100.780162 109.198568,98.5969596 109.198568,96.2274864 C109.198568,90.4818905 113.856327,85.8244583 119.601923,85.8244583 C125.347519,85.8244583 130.005279,90.4818905 130.005279,96.2274864 Z M83.5778455,-0.000130946292 C106.805099,-0.000130946292 126.055513,24.5434598 129.528863,56.6203908 C125.905907,54.4430813 122.11272,52.6284931 118.140792,51.1949586 C117.667421,48.7158179 117.080454,46.2808716 116.380874,43.896667 C114.355135,36.9931785 111.487738,30.8400123 107.857907,25.6077258 C101.088638,15.8496082 92.4654977,10.4755724 83.5778455,10.4755724 C74.6901934,10.4755724 66.0670527,15.8496082 59.2977841,25.6077258 C55.6679529,30.8400123 52.8005565,36.9931785 50.7748174,43.896667 C48.6308992,51.2037974 47.5437176,58.9915008 47.5437176,67.0437156 C47.5437176,75.0959304 48.6308992,82.8836338 50.7748174,90.1904368 C52.8005565,97.0939253 55.6679529,103.247092 59.2977841,108.479705 C59.6739274,109.021496 60.0559632,109.549209 60.4432368,110.063828 C61.0632675,109.948595 61.7016307,109.885741 62.3547253,109.885741 C68.1006486,109.885741 72.7580808,114.543501 72.7580808,120.288769 C72.7580808,126.034365 68.1006486,130.692125 62.3547253,130.692125 C56.6094568,130.692125 51.9516972,126.034365 51.9516972,120.288769 C51.9516972,119.112544 52.1497535,117.982805 52.5098558,116.92836 C43.0319632,104.654764 37.0680143,86.8549074 37.0680143,67.0437156 C37.0680143,30.0163601 57.8910936,-0.000130946292 83.5778455,-0.000130946292 Z M123.664958,145.646944 C136.422073,145.646944 146.604784,141.459282 152.063935,134.069328 C155.238073,135.74675 158.766093,136.767149 162.490206,137.284714 C155.259024,149.599558 140.630686,156.122648 123.664958,156.122648 C113.173541,156.122648 101.743239,153.692284 90.5080471,148.736622 C94.8800164,146.3223 98.7534077,143.989164 101.622441,141.819712 C109.048405,144.323077 116.562103,145.646944 123.664958,145.646944 Z M140.876767,86.8835192 C135.620583,81.3729719 129.419949,76.5377801 122.446731,72.5118363 C110.470711,65.5972174 97.2418619,61.7892992 85.1977494,61.7892992 L85.1961125,61.7892992 C82.5640921,61.7896266 80.0414118,61.9680409 77.6473862,62.3157033 C77.5864962,62.3245422 77.5275703,62.336 77.4670077,62.3451662 C76.3794987,66.9282864 72.2628747,70.3387826 67.3471509,70.3387826 C61.601555,70.3387826 56.9441228,65.681023 56.9441228,59.9357545 C56.9441228,54.1901586 61.601555,49.532399 67.3471509,49.532399 C70.0449719,49.532399 72.5025064,50.5593453 74.3511407,52.2436419 C74.3652174,52.241023 74.3789668,52.2377494 74.3933708,52.2351304 C77.8398772,51.6226292 81.4575959,51.3139233 85.1941483,51.3135959 C98.6125422,51.3129412 113.567263,55.288798 127.684256,63.4395499 C150.910199,76.8491049 165.489105,97.8800614 166.882046,116.910159 C162.663611,116.435478 159.094343,115.035662 155.812829,113.225657 C155.153187,110.048246 154.032941,106.757238 152.454056,103.408941 C149.737575,97.6492685 145.842578,92.089289 140.876767,86.8835192 Z" fill="#999999"/>
    <path d="M247.009097,71.0820338 C251.617751,78.0221872 242.233485,83.4508931 238.030764,76.4724379 C235.4688,72.0994864 231.539102,68.009379 226.388002,64.4358547 C221.155716,60.8060235 215.002222,57.9386271 208.099061,55.9132153 C200.79193,53.7689698 193.004227,52.6817882 184.95234,52.6817882 C176.900125,52.6817882 169.112421,53.7689698 161.805291,55.9132153 C160.547879,56.2821565 159.318294,56.6821974 158.111624,57.1067908 C157.962345,62.7217678 153.366785,67.2286118 147.71547,67.2286118 C141.970202,67.2286118 137.312115,62.5711795 137.312115,56.8255836 C137.312115,51.0799877 141.970202,46.4222281 147.71547,46.4222281 C149.627286,46.4222281 151.416994,46.9404481 152.956268,47.8400491 C162.466242,44.2501565 173.36392,42.2060849 184.95234,42.2060849 C212.982375,42.2060849 236.994652,54.1395478 247.009097,71.0820338 Z M255.755589,96.2274864 C255.755589,101.444059 251.915916,105.762668 246.909512,106.5143 C236.836796,123.369379 212.891302,135.225911 184.952274,135.225911 C163.13433,135.225911 143.750678,127.996039 131.507855,116.801768 C125.585809,110.848622 132.714197,103.931712 138.237512,108.763957 C139.819671,110.239394 141.581553,111.654269 143.516284,112.996141 C148.748571,116.625972 154.901737,119.493369 161.805226,121.519108 C169.112356,123.663026 176.900059,124.750208 184.952274,124.750208 C193.004162,124.750208 200.792192,123.663026 208.098995,121.519108 C215.002484,119.493369 221.155977,116.625972 226.387937,112.996141 C230.927517,109.846883 234.514791,106.295947 237.057113,102.504397 C235.734883,100.759538 234.948878,98.5858292 234.948878,96.2274864 C234.948878,90.4818905 239.606637,85.8244583 245.352561,85.8244583 C251.097829,85.8244583 255.755589,90.4818905 255.755589,96.2274864 Z" fill="#89D96D"/>
  </g>
</svg>

<svg width="256" height="157" xmlns="http://www.w3.org/2000/svg" preserveAspectRatio="xMidYMid"><path d="M130.005 96.227c0 5.271-3.92 9.624-9.004 10.307-6.027 14.049-18.302 27.755-35.12 37.465-14.115 8.15-29.073 12.126-42.49 12.126-17.063 0-31.636-6.43-38.826-18.883-11.677-20.224-.3-48.444 26.667-67.513.001 4.356.342 8.35 1.105 11.894-2.176 1.835-4.153 3.406-6.083 5.43-4.966 5.205-8.936 10.599-11.652 16.358-5.066 10.742-5.409 20.896-.965 28.593 5.007 8.672 15.852 13.645 29.754 13.645 12.047 0 25.276-3.808 37.252-10.722 6.974-4.026 13.175-8.861 18.43-14.372 4.967-5.206 8.862-10.766 11.578-16.525.237-.502.46-1.002.675-1.5a10.357 10.357 0 0 1-2.127-6.303c0-5.745 4.657-10.403 10.403-10.403s10.403 4.658 10.403 10.403ZM83.578 0c23.227 0 42.478 24.543 45.95 56.62a64.716 64.716 0 0 0-11.387-5.425 77.627 77.627 0 0 0-1.76-7.298c-2.026-6.904-4.893-13.057-8.523-18.29-6.77-9.757-15.393-15.131-24.28-15.131-8.888 0-17.51 5.374-24.28 15.132-3.63 5.232-6.497 11.385-8.523 18.289-2.144 7.307-3.231 15.095-3.231 23.147 0 8.052 1.087 15.84 3.23 23.146 2.027 6.904 4.894 13.057 8.524 18.29.376.541.758 1.07 1.145 1.584a10.45 10.45 0 0 1 1.912-.178c5.746 0 10.403 4.658 10.403 10.403s-4.657 10.403-10.403 10.403-10.403-4.658-10.403-10.403c0-1.176.198-2.306.558-3.36-9.478-12.274-15.442-30.074-15.442-49.885C37.068 30.016 57.891 0 83.578 0Zm40.087 145.647c12.757 0 22.94-4.188 28.399-11.578 3.174 1.678 6.702 2.698 10.426 3.216-7.231 12.315-21.86 18.838-38.825 18.838-10.491 0-21.922-2.43-33.157-7.386 4.372-2.415 8.245-4.748 11.114-6.917 7.426 2.503 14.94 3.827 22.043 3.827Zm17.212-58.763c-5.256-5.511-11.457-10.346-18.43-14.372-11.976-6.915-25.205-10.723-37.25-10.723-2.633 0-5.156.179-7.55.527l-.18.03c-1.088 4.582-5.204 7.993-10.12 7.993-5.745 0-10.403-4.658-10.403-10.403 0-5.746 4.658-10.404 10.403-10.404 2.698 0 5.156 1.027 7.004 2.712l.042-.009c3.447-.612 7.065-.921 10.801-.921 13.419-.001 28.373 3.975 42.49 12.126 23.226 13.41 37.805 34.44 39.198 53.47-4.218-.475-7.788-1.874-11.07-3.684-.659-3.178-1.78-6.469-3.358-9.817-2.716-5.76-6.611-11.32-11.577-16.525Z" fill="#999"/><path d="M247.01 71.082c4.608 6.94-4.777 12.369-8.98 5.39-2.561-4.373-6.49-8.463-11.642-12.036-5.232-3.63-11.386-6.497-18.289-8.523-7.307-2.144-15.095-3.231-23.147-3.231-8.052 0-15.84 1.087-23.147 3.231a73.27 73.27 0 0 0-3.693 1.194c-.15 5.615-4.745 10.122-10.397 10.122-5.745 0-10.403-4.658-10.403-10.403 0-5.746 4.658-10.404 10.403-10.404 1.912 0 3.702.518 5.241 1.418 9.51-3.59 20.408-5.634 31.996-5.634 28.03 0 52.043 11.934 62.057 28.876Zm8.746 25.145c0 5.217-3.84 9.536-8.846 10.287-10.073 16.855-34.019 28.712-61.958 28.712-21.818 0-41.201-7.23-53.444-18.424-5.922-5.953 1.206-12.87 6.73-8.038a47.027 47.027 0 0 0 5.278 4.232c5.233 3.63 11.386 6.497 18.29 8.523 7.306 2.144 15.094 3.231 23.146 3.231 8.052 0 15.84-1.087 23.147-3.23 6.903-2.027 13.057-4.894 18.289-8.524 4.54-3.15 8.127-6.7 10.67-10.492a10.356 10.356 0 0 1-2.11-6.277c0-5.745 4.659-10.403 10.405-10.403 5.745 0 10.403 4.658 10.403 10.403Z" fill="#89D96D"/></svg>
